X: 1893
T: Stan Treacy's Starry Night For a Ramble
C:Samuel Bagnell (1873)
B: australian traditional tunes wiki
M:3/4
L:1/8
R: Waltz
Q: 1/4=100
K:D
V:1 
A>G|:"D"[F3A3] D [D2A2]|d2c2B2|"G"G6|B6|"A"A4c2|e4a2|1"D"f6|d2A2-A>G:|2"D"d6|d2 e2f2||
|:"Em"g4ge|c2e2g2|"D"f6|A2d2f2|"A"e6|1c2B2A2|"D"f6|f2e2f2:|2"A"c2B2c2|"D"d6|d2z2||
% abcbook-tune_id 6342d53a3a5b46adb187d8b4


% abcbook-boost 0
% abcbook-tablature 
% abcbook-transpose 
% abcbook-lastupdated 1665324391167
% abcbook-soundfonts 
% abcbook-repeats 1
% NFF Book 2009

